X: 1
T: Kay Girroir
M: 4/4
L: 1/8
R: reel
K: Amaj
fBBe fBBe|~f2 ec ~f2 ec|eAAc eAAc|e2 fe c2 Be| 
fBBe fBBe|~f2 ec ~f2 ec|A2 ce ~a3 (f|{a}f2) ec Bcde:| 
fbba bafg|afge ~f2 ec|Aaag aeef|=gefd ~e2 dc| 
Bbba bafg|afge ~f2 ec|A2 ce ~a3 (f|1{a}f2) ec Bcde:|2{a}f2) ec B3 e||
